Newaita-dark/actions/22/tools-check-spelling.svg

<svg height="22" viewBox="0 0 22 22" width="22" xmlns="http://www.w3.org/2000/svg"><g fill="#e0e0e0"><path d="m10.914062 2.902344c-3.527343 0-6.367187 2.839844-6.367187 6.367187v7.273438h1.820313v-3.636719h9.097656v3.636719h1.816406v-7.273438c0-3.527343-2.839844-6.367187-6.367188-6.367187zm0 1.816406c2.519532 0 4.550782 2.03125 4.550782 4.550781v1.816407h-9.097656v-1.816407c0-2.519531 2.027343-4.550781 4.546874-4.550781zm0 0"/><path d="m3.183594 18.363281h15.464844c.25 0 .453124.203125.453124.457031 0 .25-.203124.453126-.453124.453126h-15.464844c-.25 0-.453125-.203126-.453125-.453126 0-.253906.203125-.457031.453125-.457031zm0 0"/></g></svg>

<svg xmlns="http://www.w3.org/2000/svg" xmlns:xlink="http://www.w3.org/1999/xlink" width="22px" height="22px" viewBox="0 0 22 22" version="1.1">
<g id="surface1">
     <defs>
  <style id="current-color-scheme" type="text/css">
   .ColorScheme-Text { color:#eeeeee; } .ColorScheme-Highlight { color:#424242; }
  </style>
 </defs>
<path style="fill:currentColor" class="ColorScheme-Text" d="M 10.914062 2.902344 C 7.386719 2.902344 4.546875 5.742188 4.546875 9.269531 L 4.546875 16.542969 L 6.367188 16.542969 L 6.367188 12.90625 L 15.464844 12.90625 L 15.464844 16.542969 L 17.28125 16.542969 L 17.28125 9.269531 C 17.28125 5.742188 14.441406 2.902344 10.914062 2.902344 Z M 10.914062 4.71875 C 13.433594 4.71875 15.464844 6.75 15.464844 9.269531 L 15.464844 11.085938 L 6.367188 11.085938 L 6.367188 9.269531 C 6.367188 6.75 8.394531 4.71875 10.914062 4.71875 Z M 10.914062 4.71875 "/>
     <defs>
  <style id="current-color-scheme" type="text/css">
   .ColorScheme-Text { color:#eeeeee; } .ColorScheme-Highlight { color:#424242; }
  </style>
 </defs>
<path style="fill:currentColor" class="ColorScheme-Text" d="M 3.183594 18.363281 L 18.648438 18.363281 C 18.898438 18.363281 19.101562 18.566406 19.101562 18.820312 C 19.101562 19.070312 18.898438 19.273438 18.648438 19.273438 L 3.183594 19.273438 C 2.933594 19.273438 2.730469 19.070312 2.730469 18.820312 C 2.730469 18.566406 2.933594 18.363281 3.183594 18.363281 Z M 3.183594 18.363281 "/>
</g>
</svg>
